X: 1
T:Music in the Glen
S:irtrad-l, Ethan Hack, 10/94
D:Bothy Band: "Old Hag You Have Killed Me"
N:1st tune in the "Music in the Glen" Set
M:C|
K:G
G2BG EGDC|B,DGB AGAB|cdec B2dB|cABG AGED|GABG EGDC|B'DGB AGAB|cdef g3e|
[1dcBA G2(3DEF:|
[2dcBA G3A|:G2dG eGdG|G2dB cAFA|G2dG eGde|gedB AGED|G2dG eGde|g2fg afdd|
g2fg egdB|cABG AGED:|
